resources/haticons/SVG/smile.svg

<!-- Generated by IcoMoon.io -->
<svg version="1.1" xmlns="http://www.w3.org/2000/svg" width="24" height="24" viewBox="0 0 24 24">
<title>smile</title>
<path d="M12 24c6.627 0 12-5.373 12-12s-5.373-12-12-12-12 5.373-12 12 5.373 12 12 12zM12 2.25c5.385 0 9.75 4.365 9.75 9.75s-4.365 9.75-9.75 9.75-9.75-4.365-9.75-9.75 4.365-9.75 9.75-9.75zM6 7.5c0-0.828 0.672-1.5 1.5-1.5s1.5 0.672 1.5 1.5c0 0.828-0.672 1.5-1.5 1.5s-1.5-0.672-1.5-1.5zM15 7.5c0-0.828 0.672-1.5 1.5-1.5s1.5 0.672 1.5 1.5c0 0.828-0.672 1.5-1.5 1.5s-1.5-0.672-1.5-1.5zM16.502 14.701l1.93 1.158c-1.312 2.181-3.701 3.641-6.432 3.641s-5.12-1.46-6.432-3.641l1.93-1.158c0.918 1.527 2.591 2.549 4.502 2.549s3.584-1.022 4.502-2.549z"></path>
</svg>

<svg xmlns="http://www.w3.org/2000/svg" width="24" height="24"><path d="M12 24c6.627 0 12-5.373 12-12S18.627 0 12 0 0 5.373 0 12s5.373 12 12 12zm0-21.75c5.385 0 9.75 4.365 9.75 9.75s-4.365 9.75-9.75 9.75S2.25 17.385 2.25 12 6.615 2.25 12 2.25zM6 7.5a1.5 1.5 0 1 1 3.001.001A1.5 1.5 0 0 1 6 7.5zm9 0a1.5 1.5 0 1 1 3.001.001A1.5 1.5 0 0 1 15 7.5zm1.502 7.201l1.93 1.158C17.12 18.04 14.731 19.5 12 19.5s-5.12-1.46-6.432-3.641l1.93-1.158c.918 1.527 2.591 2.549 4.502 2.549s3.584-1.022 4.502-2.549z"/></svg>
